packages/icons/svg/Outline/triangle-right.svg

<svg width="24" height="24" viewBox="0 0 24 24" fill="none" xmlns="http://www.w3.org/2000/svg">
<g id="Icon/Outline/triangle-right">
<path id="Mask" fill-rule="evenodd" clip-rule="evenodd" d="M10.5 8.01459V15.9086L15.321 11.9976L10.5 8.01459ZM10.456 18.0006C10.149 18.0006 9.839 17.9346 9.55 17.7986C8.902 17.4936 8.5 16.8856 8.5 16.2126V7.78659C8.5 7.11459 8.902 6.50659 9.55 6.20159C10.282 5.85659 11.15 5.95659 11.759 6.45959L16.858 10.6736C17.267 11.0096 17.5 11.4936 17.5 11.9996C17.5 12.5056 17.267 12.9906 16.858 13.3266L11.759 17.5386C11.391 17.8436 10.927 18.0006 10.456 18.0006Z" fill="#000000"/>
</g>
</svg>

<svg fill="none" height="24" viewBox="0 0 24 24" width="24" xmlns="http://www.w3.org/2000/svg"><path clip-rule="evenodd" d="m10.5 8.01449v7.89401l4.821-3.911zm-.044 9.98621c-.307 0-.617-.066-.906-.202-.648-.305-1.05-.913-1.05-1.586v-8.42604c0-.672.402-1.28 1.05-1.585.732-.345 1.6-.245 2.209.258l5.099 4.21404c.409.336.642.82.642 1.326s-.233.991-.642 1.327l-5.099 4.212c-.368.305-.832.462-1.303.462z" fill="#6b7280" fill-rule="evenodd"/></svg>
